X: 177
T: The Ten-Pound Fiddle
C: J.S. Skinner (1897)
R: reel
F: http://www.abdn.ac.uk/scottskinner/images/JSS0351.jpg
N: "To Dean of Guild Littlejohn for Bonnie Banchory Bazaar Aug: 1897"
Z: 2009 John Chambers <jc:trillian.mit.edu>
M: 2/4
L: 1/16
K: A
%%slurgraces
E | "A"{G}A2(ED)  CEAf | "A"eAfA     "E"GBBG | "A"{G}A2(EC)  "Bm"DFBA       | "E7"GBeg "A"aAA |
E | "A"A/A/A (ED) CEAf | "A"eAaA     "E"GBBG | "A"A/A/A (EC) "Bm"DFBA       | "E7"GBeg "A"aAA ||
g | "A"a/a/a (ea) caAg | "A"aec[ae] "Bm"fBBg | "A"a/a/a (ec) "Bm"f/f/f (dB) | "E7"GBeg "A"aAA |
a | "A"ga.e.a .c.a.A.a | "A"caAa    "Bm"fBBc | "A"[A/A2]A/A (EC) "Bm"DFBA   | "E7"GBeg "A"aAA |]

%%sep 1 1 500

